X:724
M:C|
L:1/8
K:G Minor
d|~gdga b2ag|fcfg a2gf|gdga b2ag|fdcA G/G/G G2|gdga gabg|
~fgag ~fdcf|dfga gfga|fdcA G/G/G G||

